front/assets/images/illustration-filtre-besoins-sensibiliser.svg

<svg width="56" height="56" viewBox="0 0 56 56" fill="none" xmlns="http://www.w3.org/2000/svg">
    <path fill-rule="evenodd" clip-rule="evenodd" d="M6.9998 37.0992C7.3848 37.0992 7.6998 36.7842 7.6998 36.3992C7.6998 36.0142 7.3848 35.6992 6.9998 35.6992C6.6148 35.6992 6.2998 36.0142 6.2998 36.3992C6.2998 36.7842 6.6148 37.0992 6.9998 37.0992Z" fill="#FFF7DB"/>
    <path fill-rule="evenodd" clip-rule="evenodd" d="M16.0999 4.9C16.4849 4.9 16.7999 4.585 16.7999 4.2C16.7999 3.815 16.4849 3.5 16.0999 3.5C15.7149 3.5 15.3999 3.815 15.3999 4.2C15.3999 4.585 15.7149 4.9 16.0999 4.9Z" fill="#FFF7DB"/>
    <path fill-rule="evenodd" clip-rule="evenodd" d="M46.2 32.9C46.585 32.9 46.9 32.585 46.9 32.2C46.9 31.815 46.585 31.5 46.2 31.5C45.815 31.5 45.5 31.815 45.5 32.2C45.5 32.585 45.815 32.9 46.2 32.9Z" fill="#FFF7DB"/>
    <path fill-rule="evenodd" clip-rule="evenodd" d="M51.0999 8.4C51.4849 8.4 51.7999 8.085 51.7999 7.7C51.7999 7.315 51.4849 7 51.0999 7C50.7149 7 50.3999 7.315 50.3999 7.7C50.3999 8.085 50.7149 8.4 51.0999 8.4Z" fill="#FFF7DB"/>
    <path fill-rule="evenodd" clip-rule="evenodd" d="M25.2 51.0992C25.585 51.0992 25.9 50.7842 25.9 50.3992C25.9 50.0142 25.585 49.6992 25.2 49.6992C24.815 49.6992 24.5 50.0142 24.5 50.3992C24.5 50.7842 24.815 51.0992 25.2 51.0992Z" fill="#FFF7DB"/>
    <path d="M14.2309 25.3261C13.9509 25.3261 13.6849 25.1581 13.5799 24.8781C12.9289 23.1981 12.5999 21.4201 12.5999 19.6001C12.5999 17.7801 12.9289 16.0021 13.5799 14.3221C13.7199 13.9581 14.1189 13.7831 14.4829 13.9231C14.8399 14.0631 15.0219 14.4691 14.8819 14.8261C14.2939 16.3451 13.9999 17.9551 13.9999 19.6001C13.9999 21.2451 14.2939 22.8551 14.8819 24.3741C15.0219 24.7381 14.8399 25.1371 14.4829 25.2771C14.3989 25.3121 14.3149 25.3261 14.2309 25.3261Z" fill="#FEC34B"/>
    <path d="M10.8709 27.8041C10.6119 27.8041 10.3669 27.6641 10.2479 27.4191C9.0229 24.9761 8.3999 22.3441 8.3999 19.6001C8.3999 16.8561 9.0229 14.2241 10.2479 11.7811C10.4229 11.4381 10.8429 11.2981 11.1859 11.4661C11.5289 11.6411 11.6689 12.0611 11.5009 12.4041C10.3739 14.6511 9.8069 17.0661 9.8069 19.5931C9.8069 22.1201 10.3809 24.5351 11.5009 26.7821C11.6759 27.1251 11.5359 27.5451 11.1859 27.7201C11.0879 27.7691 10.9759 27.7971 10.8709 27.7971V27.8041Z" fill="#FEC34B"/>
    <path d="M40.6139 27.6571C40.4879 27.6571 40.3619 27.6221 40.2429 27.5521C39.9139 27.3491 39.8159 26.9151 40.0189 26.5861C41.3139 24.4931 41.9999 22.0781 41.9999 19.6001C41.9999 17.1221 41.3139 14.7001 40.0189 12.6141C39.8159 12.2851 39.9139 11.8511 40.2429 11.6481C40.5719 11.4451 41.0059 11.5431 41.2089 11.8721C42.6439 14.1821 43.3999 16.8561 43.3999 19.6001C43.3999 22.3441 42.6439 25.0111 41.2089 27.3281C41.0759 27.5451 40.8449 27.6571 40.6139 27.6571Z" fill="#FEC34B"/>
    <path d="M44.3379 29.2111C44.2119 29.2111 44.0789 29.1761 43.9669 29.1061C43.6379 28.9031 43.5399 28.4691 43.7499 28.1401C45.3529 25.5851 46.2069 22.6311 46.2069 19.6001C46.2069 16.5691 45.3599 13.6151 43.7499 11.0601C43.5469 10.7311 43.6449 10.3041 43.9669 10.0941C44.2959 9.89112 44.7229 9.98912 44.9329 10.3111C46.6829 13.0901 47.5999 16.2961 47.5999 19.5931C47.5999 22.8901 46.6759 26.0961 44.9329 28.8751C44.7999 29.0851 44.5689 29.2041 44.3379 29.2041V29.2111Z" fill="#FEC34B"/>
    <path d="M28.6999 26.6001H27.2999C26.1449 26.6001 25.1999 25.6551 25.1999 24.5001V22.6241H26.5999V24.5001C26.5999 24.8851 26.9149 25.2001 27.2999 25.2001H28.6999C29.0849 25.2001 29.3999 24.8851 29.3999 24.5001V22.6241H30.7999V24.5001C30.7999 25.6551 29.8549 26.6001 28.6999 26.6001Z" fill="#FEC34B"/>
    <path d="M27.9999 23.8001C27.6149 23.8001 27.2999 23.4851 27.2999 23.1001C27.2999 22.7151 27.6149 22.4001 27.9999 22.4001C28.6369 22.4001 29.2389 22.2601 29.7919 21.9941C31.2759 21.2941 32.1999 19.8381 32.1999 18.2001C32.1999 15.8831 30.3169 14.0001 27.9999 14.0001C25.6829 14.0001 23.7999 15.8831 23.7999 18.2001C23.7999 19.8381 24.7169 21.2941 26.2009 21.9941C26.5509 22.1621 26.6979 22.5751 26.5369 22.9251C26.3689 23.2751 25.9559 23.4221 25.6059 23.2611C23.6319 22.3301 22.4069 20.3911 22.4069 18.2071C22.4069 15.1201 24.9199 12.6071 28.0069 12.6071C31.0939 12.6071 33.6069 15.1201 33.6069 18.2071C33.6069 20.3911 32.3819 22.3301 30.4079 23.2611C29.6659 23.6181 28.8539 23.8071 28.0069 23.8071L27.9999 23.8001Z" fill="#FEC34B"/>
    <path d="M27.9999 21.0001C27.6149 21.0001 27.2999 20.6851 27.2999 20.3001V18.2001C27.2999 17.8151 27.6149 17.5001 27.9999 17.5001C28.3849 17.5001 28.6999 17.8151 28.6999 18.2001V20.3001C28.6999 20.6851 28.3849 21.0001 27.9999 21.0001Z" fill="#FEC34B"/>
    <path d="M29.3999 18.9001H26.5999C26.2149 18.9001 25.8999 18.5851 25.8999 18.2001C25.8999 17.8151 26.2149 17.5001 26.5999 17.5001H29.3999C29.7849 17.5001 30.0999 17.8151 30.0999 18.2001C30.0999 18.5851 29.7849 18.9001 29.3999 18.9001Z" fill="#FEC34B"/>
    <path d="M28.0002 30.7984C21.8262 30.7984 16.8002 25.7724 16.8002 19.5984C16.8002 13.4244 21.8262 8.39844 28.0002 8.39844C34.1742 8.39844 39.2002 13.4244 39.2002 19.5984C39.2002 22.1954 38.2902 24.7224 36.6452 26.7244C36.4002 27.0184 35.9592 27.0674 35.6582 26.8154C35.3572 26.5704 35.3152 26.1294 35.5672 25.8284C37.0092 24.0784 37.8072 21.8664 37.8072 19.5984C37.8072 14.1944 33.4112 9.79844 28.0072 9.79844C22.6032 9.79844 18.2072 14.1944 18.2072 19.5984C18.2072 25.0024 22.6032 29.3984 28.0072 29.3984C30.0792 29.3984 32.0532 28.7614 33.7262 27.5574C34.0412 27.3334 34.4752 27.4034 34.7062 27.7184C34.9302 28.0334 34.8602 28.4674 34.5452 28.6984C32.6342 30.0774 30.3732 30.8054 28.0072 30.8054L28.0002 30.7984Z" fill="#0D0C21"/>
    <path d="M44.1002 46.8984C43.7152 46.8984 43.4002 46.5834 43.4002 46.1984C43.4002 37.7074 36.4912 30.7984 28.0002 30.7984C22.8062 30.7984 17.9972 33.3884 15.1342 37.7354C14.9242 38.0574 14.4902 38.1484 14.1612 37.9314C13.8392 37.7214 13.7482 37.2874 13.9652 36.9584C17.0872 32.2264 22.3372 29.3984 28.0002 29.3984C37.2612 29.3984 44.8002 36.9374 44.8002 46.1984C44.8002 46.5834 44.4852 46.8984 44.1002 46.8984Z" fill="#0D0C21"/>
    <path d="M11.9002 46.8984C11.5152 46.8984 11.2002 46.5834 11.2002 46.1984C11.2002 43.9234 11.6482 41.7184 12.5302 39.6394C12.6842 39.2824 13.0902 39.1214 13.4472 39.2684C13.8042 39.4224 13.9722 39.8284 13.8182 40.1854C13.0132 42.0894 12.6002 44.1124 12.6002 46.1914C12.6002 46.5764 12.2852 46.8914 11.9002 46.8914V46.8984Z" fill="#0D0C21"/>
</svg>

<svg xmlns="http://www.w3.org/2000/svg" width="56" height="56" fill="none"><path fill="#FFF7DB" fill-rule="evenodd" d="M7 37.1c.385 0 .7-.316.7-.7 0-.386-.315-.7-.7-.7s-.7.314-.7.7c0 .384.315.7.7.7m9.1-32.2c.385 0 .7-.315.7-.7s-.315-.7-.7-.7-.7.315-.7.7.315.7.7.7m30.1 28c.385 0 .7-.315.7-.7s-.315-.7-.7-.7-.7.315-.7.7.315.7.7.7m4.9-24.5c.385 0 .7-.315.7-.7s-.315-.7-.7-.7-.7.315-.7.7.315.7.7.7M25.2 51.1c.385 0 .7-.316.7-.7 0-.386-.315-.7-.7-.7s-.7.314-.7.7c0 .384.315.7.7.7" clip-rule="evenodd"/><path fill="#FEC34B" d="M14.23 25.326a.69.69 0 0 1-.65-.448 14.6 14.6 0 0 1-.98-5.278c0-1.82.329-3.598.98-5.278a.69.69 0 0 1 .903-.399.7.7 0 0 1 .399.903A13.2 13.2 0 0 0 14 19.6c0 1.645.294 3.255.882 4.774a.698.698 0 0 1-.651.952m-3.361 2.478a.69.69 0 0 1-.622-.385A17.3 17.3 0 0 1 8.4 19.6c0-2.744.623-5.376 1.848-7.819a.71.71 0 0 1 .938-.315.71.71 0 0 1 .315.938 15.9 15.9 0 0 0-1.694 7.19c0 2.526.574 4.941 1.694 7.188a.695.695 0 0 1-.315.938.7.7 0 0 1-.315.077zm29.744-.147a.702.702 0 0 1-.595-1.071 13.26 13.26 0 0 0 1.98-6.986c0-2.478-.685-4.9-1.98-6.986a.702.702 0 0 1 1.19-.742 14.63 14.63 0 0 1 2.19 7.728c0 2.744-.755 5.411-2.19 7.728a.7.7 0 0 1-.595.33m3.724 1.553a.694.694 0 0 1-.588-1.071 16.06 16.06 0 0 0 2.457-8.54c0-3.03-.847-5.985-2.457-8.54a.71.71 0 0 1 .217-.966.71.71 0 0 1 .966.217 17.4 17.4 0 0 1 2.667 9.282 17.44 17.44 0 0 1-2.667 9.282.71.71 0 0 1-.595.33zM28.7 26.6h-1.4c-1.155 0-2.1-.945-2.1-2.1v-1.876h1.4V24.5c0 .385.315.7.7.7h1.4c.385 0 .7-.315.7-.7v-1.876h1.4V24.5c0 1.155-.945 2.1-2.1 2.1"/><path fill="#FEC34B" d="M28 23.8a.7.7 0 0 1-.7-.7c0-.385.315-.7.7-.7a4.1 4.1 0 0 0 1.792-.406A4.16 4.16 0 0 0 32.2 18.2c0-2.317-1.883-4.2-4.2-4.2a4.203 4.203 0 0 0-4.2 4.2c0 1.638.917 3.094 2.4 3.794.35.168.498.581.337.931a.704.704 0 0 1-.931.336 5.54 5.54 0 0 1-3.2-5.054c0-3.087 2.514-5.6 5.6-5.6 3.088 0 5.6 2.513 5.6 5.6a5.54 5.54 0 0 1-3.198 5.054 5.5 5.5 0 0 1-2.401.546z"/><path fill="#FEC34B" d="M28 21a.7.7 0 0 1-.7-.7v-2.1c0-.385.315-.7.7-.7s.7.315.7.7v2.1c0 .385-.315.7-.7.7"/><path fill="#FEC34B" d="M29.4 18.9h-2.8a.7.7 0 0 1-.7-.7c0-.385.315-.7.7-.7h2.8c.385 0 .7.315.7.7s-.315.7-.7.7"/><path fill="#0D0C21" d="M28 30.798c-6.174 0-11.2-5.026-11.2-11.2s5.026-11.2 11.2-11.2 11.2 5.026 11.2 11.2c0 2.597-.91 5.124-2.555 7.126a.7.7 0 0 1-.987.091.693.693 0 0 1-.09-.987 9.82 9.82 0 0 0 2.24-6.23c0-5.404-4.397-9.8-9.8-9.8-5.405 0-9.8 4.396-9.8 9.8s4.395 9.8 9.8 9.8a9.72 9.72 0 0 0 5.718-1.84.705.705 0 0 1 .98.16.705.705 0 0 1-.16.98 11.1 11.1 0 0 1-6.539 2.107z"/><path fill="#0D0C21" d="M44.1 46.898a.7.7 0 0 1-.7-.7c0-8.49-6.909-15.4-15.4-15.4a15.36 15.36 0 0 0-12.866 6.937.7.7 0 0 1-.973.196.7.7 0 0 1-.196-.973A16.78 16.78 0 0 1 28 29.398c9.261 0 16.8 7.54 16.8 16.8 0 .385-.315.7-.7.7m-32.2 0a.7.7 0 0 1-.7-.7c0-2.275.448-4.48 1.33-6.559a.7.7 0 0 1 .917-.37c.357.153.525.56.371.916a15.4 15.4 0 0 0-1.218 6.006c0 .385-.315.7-.7.7z"/></svg>
